!!! OTL: Berkowitz386
!!! Chapter: 1
!!! Section: III
!!! Page: 95
!!! Mode: 
!!! Encoder: DJB
**kern
*staff1
*I"Piano
=1-
*clefF4
*k[f#]
*e:
*M6/8
4.r
8r
8r
8B\
=2
4c\
8A\
4F#\
8D#\
=3
4BB/
8c\
4B\
8G\
=4
8.A\L
16G\L
16F#\
16E\JJ
8D#\L
8E\
8F#\J
=5
4.G\
8F#\
8r
8BB/
=6
4D#\
8F#\
4A\
8c\
=7
4B\
8G\
8E\L
8D\
8C\J
=8
!!linebreak:original
8A\
8r
8F#\
8G\
8r
8E\
=9
8.F#\L
16E\K
8D#\J
4E\
8r
==
*-
